WeatherApp/ClientApp/src/assets/icons/cloudiness.svg

<svg width="31" height="21" viewBox="0 0 31 21" fill="none" xmlns="http://www.w3.org/2000/svg">
<g clip-path="url(#clip0)">
<path fill-rule="evenodd" clip-rule="evenodd" d="M24.2187 4.6875C23.8971 4.6875 23.5792 4.7102 23.2626 4.75561C21.4538 2.29087 18.5993 0.8125 15.5 0.8125C12.4007 0.8125 9.5475 2.29087 7.73739 4.75561C7.42073 4.7102 7.10286 4.6875 6.78123 4.6875C3.04247 4.6875 -1.52588e-05 7.72998 -1.52588e-05 11.4687C-1.52588e-05 15.2075 3.04247 18.25 6.78123 18.25C7.61 18.25 8.42109 18.0986 9.18549 17.806C10.9387 19.3348 13.1689 20.1875 15.5 20.1875C17.8336 20.1875 20.0612 19.3348 21.8145 17.806C22.5789 18.0986 23.39 18.25 24.2187 18.25C27.9575 18.25 31 15.2075 31 11.4687C31 7.72998 27.9575 4.6875 24.2187 4.6875ZM24.2187 16.3125C23.1819 16.3125 22.2258 15.9795 21.4373 15.4245C20.0158 17.1374 17.8991 18.25 15.5 18.25C13.1008 18.25 10.9842 17.1374 9.56264 15.4245C8.77553 15.9795 7.8181 16.3125 6.78123 16.3125C4.10579 16.3125 1.93748 14.1442 1.93748 11.4687C1.93748 8.7933 4.10579 6.625 6.78123 6.625C7.43587 6.625 8.05647 6.75869 8.62416 6.99331C9.90951 4.4857 12.4903 2.75 15.5 2.75C18.5097 2.75 21.0905 4.4857 22.3745 6.99331C22.9435 6.75869 23.5654 6.625 24.2187 6.625C26.8942 6.625 29.0625 8.7933 29.0625 11.4687C29.0625 14.1442 26.8942 16.3125 24.2187 16.3125Z" fill="#57ADDD"/>
</g>
<defs>
<clipPath id="clip0">
<rect y="-5" width="31" height="31" fill="white"/>
</clipPath>
</defs>
</svg>

<svg xmlns="http://www.w3.org/2000/svg" width="31" height="21" fill="none" xmlns:v="https://vecta.io/nano"><g clip-path="url(#A)"><path fill-rule="evenodd" d="M24.22 4.688c-.322 0-.64.023-.956.068C21.454 2.29 18.6.813 15.5.813S9.548 2.29 7.737 4.756a6.72 6.72 0 0 0-.956-.068A6.79 6.79 0 0 0 0 11.469a6.79 6.79 0 0 0 6.781 6.781 6.71 6.71 0 0 0 2.404-.444c1.753 1.53 3.983 2.38 6.315 2.38a9.59 9.59 0 0 0 6.314-2.381 6.71 6.71 0 0 0 2.404.444A6.79 6.79 0 0 0 31 11.469a6.79 6.79 0 0 0-6.781-6.781zm0 11.625c-1.037 0-1.993-.333-2.78-.888-1.422 1.713-3.538 2.826-5.937 2.826s-4.516-1.113-5.937-2.825a4.81 4.81 0 0 1-2.781.888c-2.675 0-4.844-2.168-4.844-4.844S4.106 6.625 6.78 6.625a4.81 4.81 0 0 1 1.843.368C9.9 4.486 12.5 2.75 15.5 2.75s5.6 1.736 6.875 4.243c.57-.235 1.19-.368 1.844-.368 2.676 0 4.844 2.168 4.844 4.844s-2.168 4.844-4.844 4.844z" fill="#57addd"/></g><defs><clipPath id="A"><path fill="#fff" d="M0-5h31v31H0z"/></clipPath></defs></svg>
